images/features-2.svg

<svg width="90" height="90" viewBox="0 0 90 90" fill="none" xmlns="http://www.w3.org/2000/svg">
<path d="M48.125 24.9375H26.25C25.3711 24.9375 24.6875 25.7188 24.6875 26.5V29.625H37.1875C37.9688 29.625 38.75 30.4062 38.75 31.1875C38.75 32.0664 37.9688 32.75 37.1875 32.75H15.3125C14.4336 32.75 13.75 32.0664 13.75 31.1875C13.75 30.4062 14.4336 29.625 15.3125 29.625H20V26.5C20 23.082 22.7344 20.25 26.25 20.25H48.125C51.543 20.25 54.375 23.082 54.375 26.5V29.625H58.4766C59.9414 29.625 61.3086 30.2109 62.3828 31.2852L71.4648 40.3672C72.5391 41.4414 73.125 42.8086 73.125 44.2734V56.1875H73.9062C75.1758 56.1875 76.25 57.2617 76.25 58.5312C76.25 59.8984 75.1758 60.875 73.9062 60.875H70C70 66.0508 65.8008 70.25 60.625 70.25C55.4492 70.25 51.25 66.0508 51.25 60.875H38.75C38.75 66.0508 34.5508 70.25 29.375 70.25C24.1992 70.25 20 66.0508 20 60.875V48.375H24.6875V52.7695C26.0547 51.9883 27.6172 51.5 29.375 51.5C32.793 51.5 35.8203 53.4531 37.4805 56.1875H48.125C48.9062 56.1875 49.6875 55.5039 49.6875 54.625V26.5C49.6875 25.7188 48.9062 24.9375 48.125 24.9375ZM68.1445 43.6875L59.0625 34.6055C58.8672 34.4102 58.6719 34.3125 58.4766 34.3125H54.375V43.6875H68.2422H68.1445ZM34.0625 60.875C34.0625 59.2148 33.0859 57.75 31.7188 56.8711C30.2539 55.9922 28.3984 55.9922 27.0312 56.8711C25.5664 57.75 24.6875 59.2148 24.6875 60.875C24.6875 62.6328 25.5664 64.0977 27.0312 64.9766C28.3984 65.8555 30.2539 65.8555 31.7188 64.9766C33.0859 64.0977 34.0625 62.6328 34.0625 60.875ZM60.625 65.5625C62.2852 65.5625 63.75 64.6836 64.6289 63.2188C65.5078 61.8516 65.5078 59.9961 64.6289 58.5312C63.75 57.1641 62.2852 56.1875 60.625 56.1875C58.8672 56.1875 57.4023 57.1641 56.5234 58.5312C55.6445 59.9961 55.6445 61.8516 56.5234 63.2188C57.4023 64.6836 58.8672 65.5625 60.625 65.5625ZM18.4375 35.875H40.3125C41.0938 35.875 41.875 36.6562 41.875 37.4375C41.875 38.3164 41.0938 39 40.3125 39H18.4375C17.5586 39 16.875 38.3164 16.875 37.4375C16.875 36.6562 17.5586 35.875 18.4375 35.875ZM15.3125 42.125H37.1875C37.9688 42.125 38.75 42.9062 38.75 43.6875C38.75 44.5664 37.9688 45.25 37.1875 45.25H15.3125C14.4336 45.25 13.75 44.5664 13.75 43.6875C13.75 42.9062 14.4336 42.125 15.3125 42.125Z" fill="#B7D1D1"/>
</svg>

<svg xmlns="http://www.w3.org/2000/svg" width="90" height="90" fill="none" viewBox="0 0 90 90"><path fill="#b7d1d1" d="M48.125 24.938H26.25c-.879 0-1.562.78-1.562 1.562v3.125h12.5c.78 0 1.562.781 1.562 1.563 0 .878-.781 1.562-1.562 1.562H15.311a1.543 1.543 0 0 1-1.562-1.562c0-.782.684-1.563 1.563-1.563H20V26.5a6.23 6.23 0 0 1 6.25-6.25h21.875c3.418 0 6.25 2.832 6.25 6.25v3.125h4.102c1.464 0 2.832.586 3.906 1.66l9.082 9.082c1.074 1.074 1.66 2.442 1.66 3.906v11.914h.781c1.27 0 2.344 1.075 2.344 2.344 0 1.367-1.074 2.344-2.344 2.344H70c0 5.176-4.2 9.375-9.375 9.375-5.176 0-9.375-4.2-9.375-9.375h-12.5c0 5.176-4.2 9.375-9.375 9.375-5.176 0-9.375-4.2-9.375-9.375v-12.5h4.688v4.395c1.367-.782 2.93-1.27 4.687-1.27 3.418 0 6.445 1.953 8.105 4.688h10.645c.781 0 1.563-.684 1.563-1.563V26.5c0-.781-.782-1.562-1.563-1.562m20.02 18.75-9.082-9.083q-.294-.292-.586-.292h-4.102v9.374h13.867zM34.062 60.875c0-1.66-.977-3.125-2.344-4.004-1.465-.879-3.32-.879-4.688 0-1.465.879-2.343 2.344-2.343 4.004 0 1.758.878 3.223 2.343 4.102 1.367.879 3.223.879 4.688 0 1.367-.88 2.343-2.344 2.343-4.102m26.562 4.688c1.66 0 3.125-.88 4.004-2.344.879-1.367.879-3.223 0-4.688-.879-1.367-2.344-2.343-4.004-2.343-1.758 0-3.223.976-4.102 2.343-.879 1.465-.879 3.32 0 4.688.88 1.465 2.344 2.343 4.102 2.343M18.438 35.875h21.875c.78 0 1.562.781 1.562 1.563 0 .878-.781 1.562-1.562 1.562H18.437a1.543 1.543 0 0 1-1.562-1.562c0-.782.684-1.563 1.563-1.563m-3.125 6.25h21.874c.782 0 1.563.781 1.563 1.563 0 .878-.781 1.562-1.562 1.562H15.311a1.543 1.543 0 0 1-1.562-1.562c0-.782.684-1.563 1.563-1.563"/></svg>
